X:1
T:Hole In The Sock
L:1/8
M:2/4
I:linebreak $
K:D
V:1 treble 
V:1
 f |: gB Bc/d/ | e>f ef/g/ | ad dA | GB Af | gb ba/g/ | fa af | gf ed/e/ | fe ef :| x4 |$ %10
 f2 aa/f/ | ed ed | Be ee | fa e2 | fb aa/f/ | ed ef | gf ed | BA A2 | fa aa/f/ | ed ed |$ %20
 Be ee/e/ | fa ed/e/ | fb aa/f/ | ed ef | gf ed/e/ | fe ef || %26
